X: 7912
T: Conal's
R: reel
M: 4/4
K: Dmajor
|:FG|A2fe d~ A3|FAdA gfed|cded c~A3|GAce gece|
d2fe d~A3|FAdA gfed|cded cABc|1 dgfe d2:|2 dfecd2||
|:d'c'|b2ba bagd|~B3c defg|~a3b agfd|A^GAB =cAFA|
~G2(3Bcd g2AG|FAde fafd|~e3f gece|defg ac' d'c'|
b2ba bagd|~B3c d2(3 efg|a2ag agfd|A^GAB =cAFA|
GG (3Bcd g2AG|FAde fafd|~e3f gece|d2 fed2||

